austria/municipalities/40919.svg

<?xml version="1.0" encoding="UTF-8"?>
<!DOCTYPE svg PUBLIC "-//W3C//DTD SVG 1.1//EN" "http://www.w3.org/Graphics/SVG/1.1/DTD/svg11.dtd">
<svg xmlns="http://www.w3.org/2000/svg" version="1.1" width="166px" height="207px" style="shape-rendering:geometricPrecision; text-rendering:geometricPrecision; image-rendering:optimizeQuality; fill-rule:evenodd; clip-rule:evenodd" xmlns:xlink="http://www.w3.org/1999/xlink">
<g><path style="opacity:1" fill="#000000" d="M -0.5,-0.5 C 54.8333,-0.5 110.167,-0.5 165.5,-0.5C 165.5,44.5 165.5,89.5 165.5,134.5C 161.239,157.511 149.906,176.344 131.5,191C 120.516,198.576 108.516,203.743 95.5,206.5C 86.8333,206.5 78.1667,206.5 69.5,206.5C 30.0336,197.035 6.70027,172.368 -0.5,132.5C -0.5,88.1667 -0.5,43.8333 -0.5,-0.5 Z"/></g>
<g><path style="opacity:1" fill="#cb0000" d="M 3.5,3.5 C 12.3733,9.19732 20.5399,15.864 28,23.5C 31.4698,28.7736 34.1364,34.4402 36,40.5C 36.7886,56.7199 36.2886,72.8866 34.5,89C 34.1916,95.6667 35.0249,102.167 37,108.5C 42.1227,119.076 48.9561,128.409 57.5,136.5C 62.6562,140.156 68.3229,142.656 74.5,144C 64.2977,148.64 53.631,150.307 42.5,149C 30.895,145.509 19.395,145.675 8,149.5C 6.29049,145.289 4.95716,140.956 4,136.5C 3.50001,92.1679 3.33334,47.8346 3.5,3.5 Z"/></g>
<g><path style="opacity:1" fill="#fe9900" d="M 8.5,4.5 C 57.665,3.33503 106.998,3.16836 156.5,4C 129.184,20.919 119.684,45.0857 128,76.5C 128.667,85.1667 128.667,93.8333 128,102.5C 122.426,118.859 112.259,131.359 97.5,140C 78.0833,146.361 62.2499,141.528 50,125.5C 38.1554,111.62 33.8221,95.6197 37,77.5C 45.8232,45.6553 36.3232,21.3219 8.5,4.5 Z"/></g>
<g><path style="opacity:1" fill="#cb0000" d="M 160.5,3.5 C 161.665,47.9981 161.831,92.6648 161,137.5C 160.274,141.751 158.941,145.751 157,149.5C 151.618,147.107 145.951,146.107 140,146.5C 131.685,147.49 123.352,148.49 115,149.5C 106.46,149.32 98.2929,147.486 90.5,144C 96.9083,143.128 102.575,140.628 107.5,136.5C 117.768,126.953 125.268,115.62 130,102.5C 131.032,86.5625 130.199,70.7292 127.5,55C 127.344,38.3136 133.677,24.647 146.5,14C 151.35,10.6366 156.017,7.13662 160.5,3.5 Z"/></g>
<g><path style="opacity:1" fill="#000000" d="M 69.5,10.5 C 75.6107,11.3681 80.7773,14.0348 85,18.5C 90.6424,12.1693 97.4757,10.6693 105.5,14C 103.47,16.969 103.47,20.1357 105.5,23.5C 105.152,25.6967 104.152,27.53 102.5,29C 107.802,31.4141 110.802,35.5808 111.5,41.5C 110.309,43.7733 108.642,44.1066 106.5,42.5C 104.792,42.7028 103.459,43.5362 102.5,45C 100.866,45.4935 99.1992,45.6602 97.5,45.5C 96.6584,54.2298 95.3251,62.8965 93.5,71.5C 93.8333,72.1667 94.1667,72.8333 94.5,73.5C 95.7362,72.7542 97.0695,72.4208 98.5,72.5C 96.2483,79.2892 94.415,86.2892 93,93.5C 91.3745,96.1277 89.3745,98.461 87,100.5C 85.5384,109.969 86.8717,110.636 91,102.5C 98.3599,93.469 107.193,86.3024 117.5,81C 118.332,80.3123 118.998,80.479 119.5,81.5C 115.566,100.721 104.566,114.054 86.5,121.5C 85.5067,126.12 85.1734,130.786 85.5,135.5C 83.5,135.5 81.5,135.5 79.5,135.5C 79.8266,130.786 79.4933,126.12 78.5,121.5C 65.9599,116.79 56.7932,108.456 51,96.5C 49.1586,91.6388 47.3253,86.8055 45.5,82C 47.5527,81.6753 49.5527,82.0087 51.5,83C 62.2871,89.4535 71.1204,97.9535 78,108.5C 78.6667,105.833 78.6667,103.167 78,100.5C 75.6255,98.461 73.6255,96.1277 72,93.5C 70.5706,86.2394 68.7373,79.2394 66.5,72.5C 67.9305,72.4208 69.2638,72.7542 70.5,73.5C 71.3769,64.5151 71.3769,55.5151 70.5,46.5C 65.755,44.9361 61.0883,43.1028 56.5,41C 57.9295,37.6108 59.0961,34.1108 60,30.5C 61.4196,28.578 63.2529,27.2446 65.5,26.5C 64.4557,24.2324 64.289,21.8991 65,19.5C 66.5133,16.4734 68.0133,13.4734 69.5,10.5 Z"/></g>
<g><path style="opacity:1" fill="#003266" d="M 69.5,13.5 C 76.0962,13.2966 81.0962,15.9632 84.5,21.5C 87.3304,18.1709 90.8304,15.8376 95,14.5C 97.5411,15.007 100.041,15.6737 102.5,16.5C 102.449,19.6651 102.282,22.9984 102,26.5C 100.833,27.6667 99.6667,28.8333 98.5,30C 104.785,30.7835 108.119,34.2835 108.5,40.5C 104.751,40.7755 101.251,41.7755 98,43.5C 95.4741,43.4349 93.1407,42.7683 91,41.5C 90.6667,44.1667 90.3333,46.8333 90,49.5C 85.0197,54.0839 80.353,53.4173 76,47.5C 75.5078,46.451 75.6744,45.451 76.5,44.5C 76.1924,43.6919 75.6924,43.0253 75,42.5C 73.2927,43.4585 71.4594,44.1252 69.5,44.5C 66.6112,43.6113 63.9446,42.278 61.5,40.5C 58.9281,33.0648 61.5947,29.0648 69.5,28.5C 67.9702,26.7738 66.9702,24.7738 66.5,22.5C 67.7976,19.5778 68.7976,16.5778 69.5,13.5 Z"/></g>
<g><path style="opacity:1" fill="#000000" d="M 71.5,17.5 C 74.7291,19.2298 77.0624,21.8965 78.5,25.5C 78.1667,25.8333 77.8333,26.1667 77.5,26.5C 75.4483,23.4645 73.4483,20.4645 71.5,17.5 Z"/></g>
<g><path style="opacity:1" fill="#000000" d="M 97.5,17.5 C 99.0281,17.5173 99.5281,18.184 99,19.5C 96.9835,21.684 94.8169,23.684 92.5,25.5C 91.479,24.9984 91.3123,24.3317 92,23.5C 94.0396,21.6298 95.8729,19.6298 97.5,17.5 Z"/></g>
<g><path style="opacity:1" fill="#000000" d="M 80.5,24.5 C 83.378,25.2543 86.2114,25.5876 89,25.5C 89.8632,27.7489 89.3632,29.5822 87.5,31C 90.473,32.2242 91.1397,34.2242 89.5,37C 85.4807,39.1605 81.6473,38.9938 78,36.5C 78.7131,32.5801 79.5464,28.5801 80.5,24.5 Z"/></g>
<g><path style="opacity:1" fill="#fe9900" d="M 81.5,26.5 C 83.5851,27.3503 85.5851,27.6837 87.5,27.5C 85.5761,29.0087 84.4094,31.0087 84,33.5C 83.6162,30.9398 82.7829,28.6064 81.5,26.5 Z"/></g>
<g><path style="opacity:1" fill="#003266" d="M 79.5,32.5 C 81.0481,32.8212 81.7148,33.8212 81.5,35.5C 84.2385,36.0352 86.0718,35.0352 87,32.5C 88.6169,33.5358 88.7836,34.7025 87.5,36C 84.854,36.4974 82.1873,36.6641 79.5,36.5C 79.5,35.1667 79.5,33.8333 79.5,32.5 Z"/></g>
<g><path style="opacity:1" fill="#000000" d="M 94.5,32.5 C 97.4786,33.3173 100.479,34.1506 103.5,35C 104.711,35.8928 104.711,36.7261 103.5,37.5C 101.885,36.846 100.218,36.346 98.5,36C 96.4556,35.5017 95.1223,34.335 94.5,32.5 Z"/></g>
<g><path style="opacity:1" fill="#000000" d="M 74.5,33.5 C 76.5492,33.7058 76.8825,34.5391 75.5,36C 71.9462,36.1969 68.7795,37.3635 66,39.5C 65.5,39.1667 65,38.8333 64.5,38.5C 67.5915,36.2876 70.9249,34.6209 74.5,33.5 Z"/></g>
<g><path style="opacity:1" fill="#000000" d="M 81.5,39.5 C 82.7479,40.3339 83.4146,41.6672 83.5,43.5C 83.1667,44.8333 82.8333,46.1667 82.5,47.5C 81.52,44.9135 81.1866,42.2469 81.5,39.5 Z"/></g>
<g><path style="opacity:1" fill="#003266" d="M 92.5,45.5 C 93.5,45.5 94.5,45.5 95.5,45.5C 94.9937,52.1971 94.1603,58.8638 93,65.5C 92.8071,60.2497 92.3071,55.083 91.5,50C 92.3802,48.6439 92.7135,47.1439 92.5,45.5 Z"/></g>
<g><path style="opacity:1" fill="#003266" d="M 72.5,46.5 C 74.8284,48.1661 75.8284,50.4995 75.5,53.5C 75.1084,56.8494 74.6084,60.1827 74,63.5C 73.3672,57.839 72.8672,52.1723 72.5,46.5 Z"/></g>
<g><path style="opacity:1" fill="#003266" d="M 78.5,52.5 C 81.1515,53.325 82.4848,55.1584 82.5,58C 81.7873,63.476 81.2873,68.976 81,74.5C 79.7855,67.2138 78.9522,59.8805 78.5,52.5 Z"/></g>
<g><path style="opacity:1" fill="#003266" d="M 84.5,55.5 C 85.6546,62.3209 85.8213,69.3209 85,76.5C 83.9429,73.793 83.4429,70.9597 83.5,68C 83.8084,63.8245 84.1417,59.6578 84.5,55.5 Z"/></g>
<g><path style="opacity:1" fill="#003266" d="M 76.5,57.5 C 77.8895,65.9778 78.3895,74.6445 78,83.5C 77.0882,80.6807 75.9216,78.0141 74.5,75.5C 75.4305,69.528 76.0972,63.528 76.5,57.5 Z"/></g>
<g><path style="opacity:1" fill="#003266" d="M 89.5,57.5 C 90.654,63.987 90.8206,70.6536 90,77.5C 89.5814,78.6721 88.9147,79.6721 88,80.5C 88.7276,72.8861 89.2276,65.2195 89.5,57.5 Z"/></g>
<g><path style="opacity:1" fill="#006632" d="M 70.5,76.5 C 74.5766,79.3724 76.91,83.3724 77.5,88.5C 79.3363,85.0261 81.0029,81.3595 82.5,77.5C 84.4534,80.9795 85.9534,84.6462 87,88.5C 88.4026,83.9609 90.736,79.9609 94,76.5C 93.38,82.1553 92.38,87.822 91,93.5C 89,95.5 87,97.5 85,99.5C 84.3333,105.167 84.3333,110.833 85,116.5C 91.6189,101.881 102.119,91.3808 116.5,85C 111.562,102.27 100.729,114.103 84,120.5C 83,137.833 82,137.833 81,120.5C 66.1411,115.311 56.4744,105.311 52,90.5C 58.6469,99.647 66.4802,107.647 75.5,114.5C 76.521,113.998 76.6877,113.332 76,112.5C 65.7784,103.612 56.6118,94.4457 48.5,85C 62.4685,91.2972 72.9685,101.464 80,115.5C 80.6667,110.167 80.6667,104.833 80,99.5C 73.4489,93.3106 70.2823,85.6439 70.5,76.5 Z"/></g>
<g><path style="opacity:1" fill="#000000" d="M 110.5,90.5 C 111.043,90.56 111.376,90.8933 111.5,91.5C 105.914,99.4234 99.5809,106.757 92.5,113.5C 91.4173,112.635 91.2506,111.635 92,110.5C 98.7402,104.264 104.907,97.5972 110.5,90.5 Z"/></g>
<g><path style="opacity:1" fill="#fefffe" d="M -0.5,132.5 C 6.70027,172.368 30.0336,197.035 69.5,206.5C 46.1667,206.5 22.8333,206.5 -0.5,206.5C -0.5,181.833 -0.5,157.167 -0.5,132.5 Z"/></g>
<g><path style="opacity:1" fill="#fefffe" d="M 165.5,134.5 C 165.5,158.5 165.5,182.5 165.5,206.5C 142.167,206.5 118.833,206.5 95.5,206.5C 108.516,203.743 120.516,198.576 131.5,191C 149.906,176.344 161.239,157.511 165.5,134.5 Z"/></g>
<g><path style="opacity:1" fill="#fefffe" d="M 78.5,145.5 C 83.5364,145.588 88.5364,146.088 93.5,147C 103.425,151.165 113.758,152.499 124.5,151C 135.685,147.424 146.685,147.758 157.5,152C 154.675,157.113 151.842,162.279 149,167.5C 146.141,169.723 142.974,170.056 139.5,168.5C 131.537,169.588 123.537,170.254 115.5,170.5C 104.288,169.483 93.1214,168.15 82,166.5C 71.1774,167.941 60.3441,169.275 49.5,170.5C 41.4633,170.254 33.4633,169.588 25.5,168.5C 22.0258,170.056 18.8591,169.723 16,167.5C 12.9728,162.779 10.4728,157.779 8.5,152.5C 8.70931,151.914 9.04265,151.414 9.5,151C 19.8194,147.702 30.1528,147.702 40.5,151C 46.8333,151.667 53.1667,151.667 59.5,151C 65.9283,149.018 72.2617,147.185 78.5,145.5 Z"/></g>
<g><path style="opacity:1" fill="#006632" d="M 74.5,168.5 C 79.8437,168.334 85.1771,168.501 90.5,169C 106.698,173.126 123.031,173.626 139.5,170.5C 141.577,170.692 143.577,171.192 145.5,172C 120.787,200.851 90.1206,209.518 53.5,198C 39.9647,192.23 28.6313,183.564 19.5,172C 21.4233,171.192 23.4233,170.692 25.5,170.5C 42.155,173.783 58.4883,173.116 74.5,168.5 Z"/></g>
</svg>

<svg xmlns="http://www.w3.org/2000/svg" width="166" height="207" style="shape-rendering:geometricPrecision;text-rendering:geometricPrecision;image-rendering:optimizeQuality;fill-rule:evenodd;clip-rule:evenodd"><path style="opacity:1" d="M-.5-.5h166v135c-4.261 23.011-15.594 41.844-34 56.5-10.984 7.576-22.984 12.743-36 15.5h-26c-39.466-9.465-62.8-34.132-70-74V-.5z"/><path style="opacity:1" fill="#cb0000" d="M3.5 3.5c8.873 5.697 17.04 12.364 24.5 20a66.141 66.141 0 0 1 8 17A304.77 304.77 0 0 1 34.5 89a56.267 56.267 0 0 0 2.5 19.5c5.123 10.576 11.956 19.909 20.5 28a46.009 46.009 0 0 0 17 7.5c-10.202 4.64-20.869 6.307-32 5-11.605-3.491-23.105-3.325-34.5.5a78.096 78.096 0 0 1-4-13c-.5-44.332-.667-88.665-.5-133z"/><path style="opacity:1" fill="#fe9900" d="M8.5 4.5a3655.208 3655.208 0 0 1 148-.5c-27.316 16.919-36.816 41.086-28.5 72.5.667 8.667.667 17.333 0 26-5.574 16.359-15.741 28.859-30.5 37.5-19.417 6.361-35.25 1.528-47.5-14.5-11.845-13.88-16.178-29.88-13-48 8.823-31.845-.677-56.178-28.5-73z"/><path style="opacity:1" fill="#cb0000" d="M160.5 3.5a2997.202 2997.202 0 0 1 .5 134c-.726 4.251-2.059 8.251-4 12-5.382-2.393-11.049-3.393-17-3-8.315.99-16.648 1.99-25 3a62.643 62.643 0 0 1-24.5-5.5c6.408-.872 12.075-3.372 17-7.5 10.268-9.547 17.768-20.88 22.5-34a202.523 202.523 0 0 0-2.5-47.5c-.156-16.686 6.177-30.353 19-41a232.73 232.73 0 0 0 14-10.5z"/><path style="opacity:1" d="M69.5 10.5c6.11.868 11.277 3.535 15.5 8 5.642-6.33 12.476-7.83 20.5-4.5-2.03 2.969-2.03 6.136 0 9.5-.348 2.197-1.348 4.03-3 5.5 5.302 2.414 8.302 6.58 9 12.5-1.191 2.273-2.858 2.607-5 1-1.708.203-3.041 1.036-4 2.5-1.634.493-3.3.66-5 .5a232.884 232.884 0 0 1-4 26l1 2a6.845 6.845 0 0 1 4-1 171.612 171.612 0 0 0-5.5 21 29.946 29.946 0 0 1-6 7c-1.462 9.469-.128 10.136 4 2 7.36-9.031 16.193-16.198 26.5-21.5.832-.688 1.498-.521 2 .5-3.934 19.221-14.934 32.554-33 40a49.874 49.874 0 0 0-1 14h-6a49.874 49.874 0 0 0-1-14c-12.54-4.71-21.707-13.044-27.5-25-1.841-4.861-3.675-9.695-5.5-14.5 2.053-.325 4.053.009 6 1 10.787 6.454 19.62 14.954 26.5 25.5a16.25 16.25 0 0 0 0-8 29.946 29.946 0 0 1-6-7c-1.43-7.26-3.263-14.26-5.5-21a6.845 6.845 0 0 1 4 1c.877-8.985.877-17.985 0-27a135.046 135.046 0 0 1-14-5.5A71.907 71.907 0 0 0 60 30.5c1.42-1.922 3.253-3.255 5.5-4-1.044-2.268-1.211-4.6-.5-7l4.5-9z"/><path style="opacity:1" fill="#003266" d="M69.5 13.5c6.596-.203 11.596 2.463 15 8 2.83-3.33 6.33-5.662 10.5-7a60.98 60.98 0 0 1 7.5 2 156.154 156.154 0 0 1-.5 10L98.5 30c6.285.784 9.619 4.283 10 10.5-3.749.276-7.249 1.276-10.5 3-2.526-.065-4.86-.732-7-2l-1 8c-4.98 4.584-9.647 3.917-14-2-.492-1.049-.326-2.049.5-3a4.452 4.452 0 0 0-1.5-2 18.106 18.106 0 0 1-5.5 2 27.012 27.012 0 0 1-8-4c-2.572-7.435.095-11.435 8-12a12.8 12.8 0 0 1-3-6 48.986 48.986 0 0 0 3-9z"/><path style="opacity:1" d="M71.5 17.5c3.23 1.73 5.562 4.396 7 8l-1 1a835.962 835.962 0 0 1-6-9zM97.5 17.5c1.528.017 2.028.684 1.5 2a55.098 55.098 0 0 1-6.5 6c-1.021-.502-1.188-1.168-.5-2a46.142 46.142 0 0 0 5.5-6zM80.5 24.5c2.878.754 5.711 1.088 8.5 1 .863 2.249.363 4.082-1.5 5.5 2.973 1.224 3.64 3.224 2 6-4.02 2.16-7.853 1.994-11.5-.5.713-3.92 1.546-7.92 2.5-12z"/><path style="opacity:1" fill="#fe9900" d="M81.5 26.5c2.085.85 4.085 1.184 6 1-1.924 1.509-3.09 3.509-3.5 6-.384-2.56-1.217-4.894-2.5-7z"/><path style="opacity:1" fill="#003266" d="M79.5 32.5c1.548.321 2.215 1.321 2 3 2.739.535 4.572-.465 5.5-3 1.617 1.036 1.784 2.203.5 3.5a32.437 32.437 0 0 1-8 .5v-4z"/><path style="opacity:1" d="M94.5 32.5c2.979.817 5.979 1.65 9 2.5 1.211.893 1.211 1.726 0 2.5a28.043 28.043 0 0 0-5-1.5c-2.044-.498-3.378-1.665-4-3.5zM74.5 33.5c2.05.206 2.382 1.04 1 2.5-3.554.197-6.72 1.364-9.5 3.5l-1.5-1a35.163 35.163 0 0 1 10-5zM81.5 39.5c1.248.834 1.915 2.167 2 4l-1 4a16.869 16.869 0 0 1-1-8z"/><path style="opacity:1" fill="#003266" d="M92.5 45.5h3a206.393 206.393 0 0 1-2.5 20A128.94 128.94 0 0 0 91.5 50c.88-1.356 1.213-2.856 1-4.5zM72.5 46.5c2.328 1.666 3.328 4 3 7-.392 3.35-.892 6.683-1.5 10a365.622 365.622 0 0 1-1.5-17zM78.5 52.5c2.651.825 3.985 2.658 4 5.5A213.866 213.866 0 0 0 81 74.5a212.906 212.906 0 0 1-2.5-22zM84.5 55.5c1.155 6.82 1.321 13.82.5 21a21.975 21.975 0 0 1-1.5-8.5c.308-4.175.642-8.342 1-12.5zM76.5 57.5c1.39 8.478 1.89 17.144 1.5 26a43.233 43.233 0 0 0-3.5-8 206.134 206.134 0 0 0 2-18zM89.5 57.5c1.154 6.487 1.32 13.154.5 20a7.291 7.291 0 0 1-2 3 384.123 384.123 0 0 0 1.5-23z"/><path style="opacity:1" fill="#006632" d="M70.5 76.5c4.077 2.872 6.41 6.872 7 12a103.979 103.979 0 0 0 5-11 48.179 48.179 0 0 1 4.5 11 30.31 30.31 0 0 1 7-12 133.558 133.558 0 0 1-3 17l-6 6a72.496 72.496 0 0 0 0 17c6.619-14.619 17.119-25.12 31.5-31.5-4.938 17.27-15.771 29.103-32.5 35.5-1 17.333-2 17.333-3 0-14.859-5.189-24.526-15.189-29-30a114.57 114.57 0 0 0 23.5 24c1.021-.502 1.188-1.168.5-2-10.222-8.888-19.388-18.054-27.5-27.5 13.968 6.297 24.469 16.464 31.5 30.5a64.247 64.247 0 0 0 0-16c-6.551-6.19-9.718-13.856-9.5-23z"/><path style="opacity:1" d="M110.5 90.5c.543.06.876.393 1 1a148.375 148.375 0 0 1-19 22c-1.083-.865-1.25-1.865-.5-3a173.653 173.653 0 0 0 18.5-20z"/><path style="opacity:1" fill="#fefffe" d="M-.5 132.5c7.2 39.868 30.534 64.535 70 74h-70v-74zM165.5 134.5v72h-70c13.016-2.757 25.016-7.924 36-15.5 18.406-14.656 29.739-33.489 34-56.5z"/><path style="opacity:1" fill="#fefffe" d="M78.5 145.5a91.734 91.734 0 0 1 15 1.5c9.925 4.165 20.258 5.499 31 4 11.185-3.576 22.185-3.242 33 1a2813.435 2813.435 0 0 0-8.5 15.5c-2.859 2.223-6.026 2.556-9.5 1a228.891 228.891 0 0 1-24 2 593.629 593.629 0 0 1-33.5-4 1647.056 1647.056 0 0 1-32.5 4 228.905 228.905 0 0 1-24-2c-3.474 1.556-6.64 1.223-9.5-1a78.831 78.831 0 0 1-7.5-15 3.646 3.646 0 0 1 1-1.5c10.32-3.298 20.653-3.298 31 0a90.455 90.455 0 0 0 19 0 561.024 561.024 0 0 1 19-5.5z"/><path style="opacity:1" fill="#006632" d="M74.5 168.5c5.344-.166 10.677.001 16 .5 16.198 4.126 32.531 4.626 49 1.5a20.2 20.2 0 0 1 6 1.5c-24.713 28.851-55.38 37.518-92 26-13.535-5.77-24.869-14.436-34-26a20.204 20.204 0 0 1 6-1.5c16.655 3.283 32.988 2.616 49-2z"/></svg>
